src/asset/icon/star.svg

<?xml version="1.0" encoding="UTF-8" standalone="no"?>
<svg width="18px" height="18px" viewBox="0 0 18 18" version="1.1" xmlns="http://www.w3.org/2000/svg" xmlns:xlink="http://www.w3.org/1999/xlink">
    <!-- Generator: sketchtool 42 (36781) - http://www.bohemiancoding.com/sketch -->
    <title>B719266D-CB2F-4571-9ABD-AFEC8A7D79DC</title>
    <desc>Created with sketchtool.</desc>
    <defs></defs>
    <g id="Configurator" stroke="none" stroke-width="1" fill="none" fill-rule="evenodd">
        <g id="Assets" transform="translate(-389.000000, -121.000000)" fill="#F6A623">
            <g id="Star-ratings" transform="translate(389.000000, 121.000000)">
                <path d="M17.7172661,6.71317213 C17.7172661,6.38570032 17.3765495,6.25471159 17.121012,6.21104869 L11.7760194,5.41420061 L9.38035544,0.447544809 C9.28452888,0.240145995 9.10352315,0 8.85863306,0 C8.61374296,0 8.43273724,0.240145995 8.33691068,0.447544809 L5.94124669,5.41420061 L0.596254148,6.21104869 C0.330069261,6.25471159 -5.68434189e-14,6.38570032 -5.68434189e-14,6.71317213 C-5.68434189e-14,6.90965522 0.138416142,7.09522258 0.266184888,7.23712703 L4.14183685,11.1012944 L3.22616084,16.5591579 C3.21551344,16.635568 3.20486605,16.7010624 3.20486605,16.7774725 C3.20486605,17.0612814 3.34328219,17.3232588 3.65205666,17.3232588 C3.80112019,17.3232588 3.93953634,17.2686802 4.07795248,17.1922701 L8.85863306,14.6161585 L13.6393136,17.1922701 C13.7670824,17.2686802 13.9161459,17.3232588 14.0652095,17.3232588 C14.3739839,17.3232588 14.5017527,17.0612814 14.5017527,16.7774725 C14.5017527,16.7010624 14.5017527,16.635568 14.4911053,16.5591579 L13.5754293,11.1012944 L17.4404338,7.23712703 C17.57885,7.09522258 17.7172661,6.90965522 17.7172661,6.71317213 L17.7172661,6.71317213 Z" id="star-copy-3"></path>
            </g>
        </g>
    </g>
</svg>

<?xml version="1.0" encoding="utf-8"?>
<!-- Generator: Adobe Illustrator 19.2.1, SVG Export Plug-In . SVG Version: 6.00 Build 0)  -->
<svg version="1.1" id="Ebene_1" xmlns="http://www.w3.org/2000/svg" xmlns:xlink="http://www.w3.org/1999/xlink" x="0px" y="0px"
	 viewBox="0 0 18 18" style="enable-background:new 0 0 18 18;" xml:space="preserve">
<title>B719266D-CB2F-4571-9ABD-AFEC8A7D79DC</title>
<desc>Created with sketchtool.</desc>
<g id="Configurator">
	<g id="Assets" transform="translate(-389.000000, -121.000000)">
		<g id="Star-ratings" transform="translate(389.000000, 121.000000)">
			<path id="star-copy-3" class="st0" d="M17.7,6.7c0-0.3-0.3-0.5-0.6-0.5l-5.3-0.8l-2.4-5C9.3,0.2,9.1,0,8.9,0S8.4,0.2,8.3,0.4
				l-2.4,5L0.6,6.2C0.3,6.3,0,6.4,0,6.7c0,0.2,0.1,0.4,0.3,0.5l3.9,3.9l-0.9,5.5c0,0.1,0,0.1,0,0.2c0,0.3,0.1,0.5,0.4,0.5
				c0.1,0,0.3-0.1,0.4-0.1l4.8-2.6l4.8,2.6c0.1,0.1,0.3,0.1,0.4,0.1c0.3,0,0.4-0.3,0.4-0.5c0-0.1,0-0.1,0-0.2l-0.9-5.5l3.9-3.9
				C17.6,7.1,17.7,6.9,17.7,6.7L17.7,6.7z"/>
		</g>
	</g>
</g>
</svg>
